modules/linea-weather/icons/weather-mistyrain-halfmoon.svg

<svg xmlns="http://www.w3.org/2000/svg" width="64" height="64" viewBox="0 0 64 64"><path fill="none" stroke="#000" stroke-width="2" stroke-miterlimit="10" d="M56 45c4.19 0 7-2.81 7-7 0-4.189-2.81-9-7-9 0-10.475-9.525-18-20-18-9.271 0-17.348 6.211-19 15h-2c-5.238 0-9 4.762-9 10s3.762 9 9 9h41z"/><path fill="none" stroke="#000" stroke-width="2" stroke-miterlimit="10" d="M24.957 15.001C22.646 11.392 18.604 9 14 9c-.826 0-1.631.085-2.414.233A8.945 8.945 0 0 1 13 14.063a9 9 0 0 1-9 9 8.97 8.97 0 0 1-2.98-.516 12.936 12.936 0 0 0 2.023 6.452 13.068 13.068 0 0 0 3.961 3.96M15 60l-1 2m11-2l-1 2m11-2l-1 2m11-2l-1 2M19 48l-1 2m11-2l-1 2m11-2l-1 2m11-2l-1 2m-37 4l-1 2m11-2l-1 2m11-2l-1 2m11-2l-1 2"/></svg>

<svg xmlns="http://www.w3.org/2000/svg" width="64" height="64" viewBox="0 0 64 64"><path fill="none" stroke="#000" stroke-width="2" stroke-miterlimit="10" d="M56 45c4.19 0 7-2.81 7-7 0-4.189-2.81-9-7-9 0-10.475-9.525-18-20-18-9.271 0-17.348 6.211-19 15h-2c-5.238 0-9 4.762-9 10s3.762 9 9 9h41z"/><path fill="none" stroke="#000" stroke-width="2" stroke-miterlimit="10" d="M24.957 15.001C22.646 11.392 18.604 9 14 9c-.826 0-1.631.085-2.414.233A8.945 8.945 0 0 1 13 14.063a9 9 0 0 1-9 9 8.97 8.97 0 0 1-2.98-.516 12.936 12.936 0 0 0 2.023 6.452 13.068 13.068 0 0 0 3.961 3.96M15 60l-1 2M25 60l-1 2M35 60l-1 2M45 60l-1 2M19 48l-1 2M29 48l-1 2M39 48l-1 2M49 48l-1 2M11 54l-1 2M21 54l-1 2M31 54l-1 2M41 54l-1 2"/></svg>
